assets/svg/icon-branding-hl7-large-blue.svg

<?xml version="1.0" encoding="UTF-8" standalone="no"?>
<svg width="70px" height="64px" viewBox="0 0 70 64" version="1.1" xmlns="http://www.w3.org/2000/svg" xmlns:xlink="http://www.w3.org/1999/xlink">
    <!-- Generator: Sketch 3.8.3 (29802) - http://www.bohemiancoding.com/sketch -->
    <title>blue/icon-branding-hl7-large-blue</title>
    <desc>Created with Sketch.</desc>
    <defs></defs>
    <g id="blue,-base" stroke="none" stroke-width="1" fill="none" fill-rule="evenodd">
        <g id="icons,-branding-&amp;-other-(blue)" transform="translate(-91.000000, -664.000000)" fill="#1055FF">
            <g id="blue/icon-branding-hl7-large-blue" transform="translate(91.000000, 664.000000)">
                <g id="icon-hl7-large">
                    <g id="Page-1">
                        <g id="icon-hl7-large">
                            <path d="M0.747756956,33.458126 C0.334782195,32.6528253 0.335237342,31.3462872 0.747756956,30.541874 L15.6624994,1.45812603 C16.0754742,0.652825272 17.1478089,0 18.0444369,0 L51.6991528,0 C52.6016857,0 53.6685707,0.653712821 54.0810903,1.45812603 L68.9958328,30.541874 C69.4088075,31.3471747 69.4083524,32.6537128 68.9958328,33.458126 L54.0810903,62.541874 C53.6681155,63.3471747 52.5957808,64 51.6991528,64 L18.0444369,64 C17.141904,64 16.0750191,63.3462872 15.6624994,62.5418739 L0.747756956,33.458126 L0.747756956,33.458126 Z M27.3234809,36.4613143 L19.8235001,36.4613143 L19.8235001,41.9802431 C19.8235001,43.1860455 19.1759559,43.4959974 18.2612633,42.6742902 L9.00515553,34.3089321 C8.09104376,33.4866675 8.1148548,32.1537625 9.02896656,31.3320554 L18.2502289,22.9672546 C19.1643407,22.1444326 19.8235001,22.4554995 19.8235001,23.6607443 L19.8235001,29.2142361 L27.349033,29.2142361 C27.2986433,29.2479574 27.2612946,29.2943495 27.2426622,29.3590611 C27.1540998,29.6664862 26.8682846,29.9413766 26.579144,29.9649497 L25.3047901,30.0604113 C25.1210143,30.0604113 24.8581273,30.2265923 24.8581273,30.4309579 L24.8581273,35.0209157 C24.8581273,35.2254762 25.1210143,35.3916572 25.3047901,35.3916572 L26.5213859,35.4865343 C26.8105265,35.5099127 27.120145,35.7851926 27.2073072,36.0932023 C27.242269,36.217379 27.2812366,36.3401141 27.3234809,36.4613143 L27.3234809,36.4613143 Z M43.5546839,36.4613143 L50.8671693,36.4613143 L50.8671693,41.9802431 C50.8671693,43.1860455 51.4855554,43.4959974 52.3664057,42.6742902 L61.2834764,34.3089321 C62.1648864,33.4866675 62.1408226,32.1537625 61.2599722,31.3320554 L52.3787175,22.9672546 C51.4978672,22.1444326 50.8671693,22.4554995 50.8671693,23.6607443 L50.8671693,29.2142361 L43.6140237,29.2142361 C43.6289602,29.2628029 43.6434449,29.3115999 43.657472,29.3606197 C43.7456843,29.6680448 44.0314995,29.941961 44.3209901,29.9643653 L45.4605752,30.0604113 C45.6445259,30.0604113 45.622998,30.2265923 45.622998,30.4309579 L45.622998,35.0209157 C45.622998,35.2254762 45.6445259,35.3916572 45.4605752,35.3916572 L44.3288662,35.4871188 C44.0397256,35.509523 43.7553107,35.7838289 43.6684985,36.0918385 C43.6334984,36.2164555 43.5955209,36.3396491 43.5546839,36.4613143 L43.5546839,36.4613143 Z M35.4683661,36.906179 C33.2248502,36.906179 31.3998623,35.0396133 31.3998623,32.7456136 C31.3998623,30.4510295 33.2248502,28.5846586 35.4683661,28.5846586 C37.711501,28.5846586 39.5368701,30.4510295 39.5368701,32.7456136 C39.5368701,35.0396133 37.711501,36.906179 35.4683661,36.906179 L35.4683661,36.906179 Z M42.9673901,31.1282221 C42.6523035,31.1058178 42.3412173,30.8319016 42.2452055,30.5244764 C42.1291911,30.1519815 41.9844112,29.7923447 41.8137235,29.4488779 C41.6704676,29.1611295 41.7020906,28.7414883 41.9089734,28.4975743 L42.8096563,27.4356131 C42.9513881,27.2908623 42.9268136,27.0808469 42.7850818,26.9362908 L41.2212691,25.3366278 C41.0795372,25.1920717 40.8745594,25.16694 40.7328277,25.3118857 L39.7117488,26.2177964 C39.4732431,26.4293704 39.0651926,26.4580089 38.7861104,26.3074134 C38.4405438,26.1207763 38.0784037,25.962388 37.7023571,25.8351709 C37.402701,25.7338648 37.1348583,25.4135815 37.1121888,25.0915449 L37.0180819,23.7920987 C37.0180819,23.5873434 36.8557761,23.5314302 36.6555609,23.5314302 L34.4440488,23.5314302 C34.2434526,23.5314302 34.0809563,23.5873434 34.0809563,23.7920987 L33.9897068,25.0708939 C33.9670374,25.3927358 33.6980516,25.6978232 33.395919,25.7915313 C32.994917,25.916021 32.6089644,26.0712921 32.2414904,26.2626049 C31.9601221,26.4091092 31.5497856,26.3750158 31.3112799,26.1636366 L30.34316,25.3038981 C30.2018091,25.159342 29.9876874,25.1747328 29.8459555,25.3192889 L28.2821429,26.9183673 C28.140411,27.0635079 28.12479,27.2820953 28.2665218,27.4268463 L29.0904335,28.3982164 C29.2971257,28.6421304 29.3251292,29.0594338 29.1771108,29.3446495 C28.983182,29.7192874 28.8203047,30.1132125 28.6919079,30.5229179 C28.595515,30.8303431 28.2844289,31.1052334 27.9697232,31.1288066 L26.5826942,31.2242681 C26.3826695,31.2242681 26.0965388,31.3904491 26.0965388,31.5948148 L26.0965388,33.8570589 C26.0965388,34.0616194 26.3826695,34.2278005 26.5826942,34.2278005 L27.9068583,34.3226775 C28.2215639,34.3460559 28.558558,34.6213358 28.653427,34.9293455 C28.7831573,35.3526882 28.9635605,35.7592766 29.1632043,36.1454088 C29.3110322,36.4308194 29.2895057,36.8477332 29.0826229,37.0916472 L28.2716653,38.0521073 C28.130124,38.1968583 28.156032,38.4066788 28.2977639,38.5516245 L29.8627196,40.1508979 C30.0044514,40.2956487 30.2098101,40.3205857 30.351542,40.1760296 L31.3082319,39.3275906 C31.5467376,39.1160167 31.9566932,39.0842611 32.2380614,39.2309602 C32.6064879,39.4230522 32.993393,39.5831938 33.395157,39.7080731 C33.6972897,39.8015865 33.9662754,40.11622 33.9881828,40.4382567 L34.0809563,41.8166046 C34.0809563,42.0213599 34.2434526,42.2341029 34.4440488,42.2341029 L36.6555609,42.2341029 C36.8557761,42.2341029 37.0180819,42.0213599 37.0180819,41.8166046 L37.1137128,40.417411 C37.1356203,40.0951795 37.4030819,39.7657397 37.7029286,39.6642388 C38.0799277,39.5368268 38.4430203,39.3737629 38.7891584,39.1865413 C39.0680501,39.0355562 39.476291,39.061662 39.7147969,39.273236 L40.7242552,40.168042 C40.865987,40.3129877 41.0620113,40.2783098 41.2037431,40.1331693 L42.7675559,38.5337012 C42.9094782,38.3891451 42.9424347,38.1880913 42.8010837,38.0433405 L41.9093543,36.9922892 C41.7024715,36.7483752 41.6712296,36.3289288 41.8141045,36.0411804 C41.9903168,35.6858296 42.1392875,35.3137244 42.257207,34.9279817 C42.3516948,34.6199721 42.6612569,34.3456662 42.9759626,34.3232619 L44.2077342,34.2278005 C44.4079495,34.2278005 44.3845181,34.0616194 44.3845181,33.8570589 L44.3845181,31.5948148 C44.3845181,31.3904491 44.4079495,31.2242681 44.2077342,31.2242681 L42.9673901,31.1282221 L42.9673901,31.1282221 Z" id="Combined-Shape"></path>
                        </g>
                    </g>
                </g>
            </g>
        </g>
    </g>
</svg>

<svg width="70" height="64" viewBox="0 0 70 64" xmlns="http://www.w3.org/2000/svg"><title>blue/icon-branding-hl7-large-blue</title><path d="M.748 33.458c-.413-.805-.413-2.112 0-2.916L15.662 1.458C16.075.653 17.148 0 18.044 0H51.7c.903 0 1.97.654 2.382 1.458l14.915 29.084c.413.805.412 2.112 0 2.916L54.08 62.542C53.668 63.347 52.596 64 51.7 64H18.044c-.902 0-1.969-.654-2.382-1.458L.748 33.458zm26.575 3.003h-7.5v5.52c0 1.205-.647 1.515-1.562.693L9.005 34.31c-.914-.822-.89-2.155.024-2.977l9.221-8.365c.914-.823 1.574-.512 1.574.694v5.553h7.525a.253.253 0 0 0-.106.145c-.089.307-.375.582-.664.606l-1.274.095c-.184 0-.447.167-.447.371v4.59c0 .204.263.37.447.37l1.216.096c.29.023.6.298.686.606.035.124.074.247.116.368zm16.232 0h7.312v5.52c0 1.205.619 1.515 1.5.693l8.916-8.365c.882-.822.858-2.155-.023-2.977l-8.881-8.365c-.881-.823-1.512-.512-1.512.694v5.553h-7.253c.015.049.03.098.043.147.089.307.374.581.664.603l1.14.096c.184 0 .162.167.162.371v4.59c0 .204.022.37-.162.37l-1.132.096c-.29.023-.574.297-.66.605a7.729 7.729 0 0 1-.114.37zm-8.087.445c-2.243 0-4.068-1.866-4.068-4.16 0-2.295 1.825-4.161 4.068-4.161 2.244 0 4.069 1.866 4.069 4.16 0 2.295-1.825 4.161-4.069 4.161zm7.5-5.778c-.316-.022-.627-.296-.723-.604a7.285 7.285 0 0 0-.431-1.075c-.144-.288-.112-.708.095-.951l.9-1.062c.142-.145.118-.355-.024-.5l-1.564-1.6c-.141-.144-.346-.17-.488-.024l-1.021.906c-.239.211-.647.24-.926.09a7.002 7.002 0 0 0-1.084-.473c-.3-.101-.567-.421-.59-.743l-.094-1.3c0-.205-.162-.26-.362-.26h-2.212c-.2 0-.363.055-.363.26l-.091 1.279c-.023.322-.292.627-.594.72-.401.125-.787.28-1.155.472-.28.146-.691.112-.93-.1l-.968-.86c-.141-.144-.355-.128-.497.016l-1.564 1.6c-.142.145-.157.363-.015.508l.823.971c.207.244.235.661.087.947a7.333 7.333 0 0 0-.485 1.178c-.096.307-.408.582-.722.606l-1.387.095c-.2 0-.486.166-.486.37v2.263c0 .205.286.37.486.37l1.324.096c.315.023.652.298.746.606.13.424.31.83.51 1.216.148.286.127.703-.08.947l-.811.96c-.142.145-.116.355.026.5l1.565 1.599c.141.145.347.17.489.025l.956-.848c.239-.212.649-.244.93-.097a6.99 6.99 0 0 0 1.157.477c.302.094.571.408.593.73l.093 1.379c0 .204.162.417.363.417h2.212c.2 0 .362-.213.362-.417l.096-1.4c.022-.322.29-.651.589-.753a7 7 0 0 0 1.086-.477c.28-.151.687-.125.926.086l1.01.895c.141.145.337.11.479-.035l1.564-1.6c.141-.144.174-.345.033-.49l-.892-1.05c-.207-.245-.238-.664-.095-.952.176-.355.325-.727.443-1.113.095-.308.404-.582.719-.605l1.232-.095c.2 0 .177-.166.177-.37v-2.263c0-.205.023-.37-.177-.37l-1.24-.097z" fill="#1055FF" fill-rule="evenodd"/></svg>
